X: 10892
M: 2/4
L: 1/16
K: C
(3GAB |\
.c4 .e4 | g4 g2 fe | d2ed cBAG | cBcd cBAG |\
.c4 .e4 | g4 g2 fe | d2ed cBAB | c2e2c2 H|]
E2GE EGGe | f2d2d2 ed | cBAG G2 AB | cBcd c2 GF |\
E2GE EG g2 | ^fgab c'2ba | d'2d'b agab | g2f2 efd"^D.C."e |]
E2 |\


